!!!!SEGMENT: pl-kk--kk-i-2--004-004_moulu-pierre--missa-i-alma-redemptoris-mater-sanctus.krn
!!!cenid: 16xx:1596
!!!COM: Moulu, Pierre
!!!COM-rismid: pe30016304
!!!CDT: ~1484-~1550
!!!CNT: French
!!!OPR: Missa I [Alma redemptoris mater]
!!!OTL: Sanctus
!!!OMV: 004
!!!PDT:
!!!AGN: Sacred; Mass
!!!SMS-siglum: PL-Kk
!!!SMS-shelfmark: Kk.I.2
!!!SMS-shelfwork: 004-004 M
!!!NIFC-rismid: 300258020
!!!URL-scan: http://repozytorium.nifc.pl/skany/pl-kk-nut--i-2
!!!ONB-nifc: Części mszy: Kyrie, Gloria, Credo, Sanctus, Agnus Dei; skany: C: 0008-0009; A: 0109-0110; T: 0212-0213; B: 0313;
!!!AIN: 1 alto 1 bass 1 soprn 1 tenor
!!!key: F:lyd
**kern	**text	**kern	**text	**kern	**text	**kern	**text
*group1	*	*group1	*	*group1	*	*group1	*
*part4	*part4	*part3	*part3	*part2	*part2	*part1	*part1
*staff4	*staff4	*staff3	*staff3	*staff2	*staff2	*staff1	*staff1
*I"BASSVS	*	*I"TENOR	*	*I"ALTVS	*	*I"DISCANTVS	*
*I'[B]	*	*I'[T]	*	*I'[A]	*	*I'[S]	*
*Ibass	*	*Itenor	*	*Ialto	*	*Isoprn	*
*ICvox	*	*ICvox	*	*ICvox	*	*ICvox	*
*clefF3	*	*clefC3	*	*clefC3	*	*clefG2	*
*k[b-]	*	*k[b-]	*	*k[b-]	*	*k[b-]	*
*F:lyd	*	*F:lyd	*	*F:lyd	*	*F:lyd	*
*M2/1	*	*M2/1	*	*M2/1	*	*M2/1	*
=1-	=1-	=1-	=1-	=1-	=1-	=1-	=1-
!LO:TX:t=P:problem=all\middle&colon; global	!	!LO:TX:t=P:problem=all\middle&colon; global	!	!LO:TX:t=P:problem=all\middle&colon; global	!	!LO:TX:t=P:problem=all\middle&colon; global	!
!LO:TX:t=P:problem=znak przykluczowy wpisany oktawę niżej	!	!	!	!	!	!	!
*met(C|)	*	*met(C|)	*	*met(C|)	*	*met(C|)	*
0F	SAN-	0F	SAN-	0f	San-	1f	SAN-
.	.	.	.	.	.	2.a/	.
!	!	!	!	!	!	!LO:TX:t=P:problem=kreska pseudotaktowa	!
.	.	.	.	.	.	4b-/	.
=2-	=2-	=2-	=2-	=2-	=2-	=2	=2
1.F	.	2.A/	.	2f\	.	0cc	.
.	.	.	.	4e\	.	.	.
!	!	!	!	!LO:TX:t=P:problem=kreska pseudotaktowa	!	!	!
.	.	4G/	.	4d\	.	.	.
.	.	4A/	.	2c/	.	.	.
.	.	4B-/	.	.	.	.	.
2E/	.	1c\	.	2e\	.	.	.
=3-	=3-	=3-	=3-	=3-	=3-	=3-	=3-
*lig	*	*	*	*lig	*	*	*
1D	.	.	.	1f	.	2dd\	.
!	!	!LO:TX:t=P:problem=kreska pseudotaktowa	!	!	!	!	!
.	.	2B-/	.	.	.	1ff	.
1C	.	1c	.	1g	.	.	.
.	.	.	.	.	.	2ee\	.
*	*	*	*	*Xlig	*	*	*
=4-	=4-	=4-	=4-	=4-	=4-	=4-	=4-
0F	.	1c	.	2.f\	.	2.ff\	.
.	.	.	.	4g\	.	4ee\	.
!	!	!	!	!LO:TX:t=P:problem=kreska pseudotaktowa	!	!	!
.	.	2.f\	.	1a	.	2dd\	.
!	!	!	!	!	!	!LO:TX:t=P:problem=kreska pseudotaktowa	!
.	.	.	.	.	.	2cc/	.
.	.	4e\	.	.	.	.	.
*Xlig	*	*	*	*	*	*	*
=5-	=5-	=5-	=5-	=5	=5	=5	=5
2G\	.	2d\	.	2r	.	2r	.
!LO:TX:t=P:problem=kreska pseudotaktowa	!	!	!	!	!	!	!
2A\	.	1f	.	2c/	.	1a	.
1B-	.	.	.	2d\	.	.	.
!	!	!	!	!LO:TX:t=P:problem=kreska pseudotaktowa	!	!LO:TX:t=P:problem=kreska pseudotaktowa	!
.	.	4e\	.	2e\	.	2g/	.
!	!	!LO:TX:t=P:problem=kreska pseudotaktowa	!	!	!	!	!
.	.	4d\	.	.	.	.	.
=6-	=6-	=6	=6	=6	=6	=6	=6
2A\	.	2c/	.	4f\	.	2a/	.
.	.	.	.	4c/	.	.	.
2B-\	.	1d	.	1f	.	2f/	.
1G	.	.	.	.	.	1g	.
!	!	!	!	!LO:TX:t=P:problem=kreska pseudotaktowa	!	!	!
.	.	4c/	.	2e\	.	.	.
.	.	4B-/	.	.	.	.	.
=7-	=7-	=7-	=7-	=7	=7	=7-	=7-
!LO:TX:t=P:problem=kreska pseudotaktowa	!	!	!	!	!	!LO:TX:t=P:problem=kreska pseudotaktowa	!
1F	.	1c	.	2.f\	.	0a	-ctus
.	.	.	.	4e\	.	.	.
!	!	!LO:TX:t=P:problem=kreska pseudotaktowa	!	!	!	!	!
2r	.	1F	-ctus	2d\	.	.	.
!	!	!	!	!LO:TX:t=P:problem=kreska pseudotaktowa	!	!	!
2.F/	.	.	.	2c/	.	.	.
=8-	=8-	=8	=8	=8	=8	=8	=8
!	!	!	!	!	!	!LO:TX:a:t=4	!
.	.	2r	.	2.F/	.	00cc\	.
4G/	.	.	.	.	.	.	.
4A\	.	2.c/	.	.	.	.	.
!LO:TX:t=P:problem=kreska pseudotaktowa	!	!	!	!	!	!	!
4B-\	.	.	.	4G/	.	.	.
2c\	.	.	.	4A/	.	.	.
.	.	4d\	.	4B-/	.	.	.
!LO:TX:t=P:problem=kreska pseudotaktowa	!	!LO:TX:t=P:problem=kreska pseudotaktowa	!	!LO:TX:t=P:problem=kreska pseudotaktowa	!	!	!
2C/	.	2e\	.	2c/	.	.	.
*	*	*	*	*custos:F	*	*	*
!	!	!	!	!LO:LB:g=original	!	!	!
=9	=9	=9	=9	=9	=9	=9-	=9-
2r	.	2f\	.	2F/	-ctus	.	.
2.F/	.	4e\	.	2.f\	do-	.	.
.	.	4d\	.	.	.	.	.
.	.	2c/	.	.	.	.	.
4G\	.	.	.	4e\	.	.	.
!LO:TX:t=P:problem=kreska pseudotaktowa	!	!LO:TX:t=P:problem=kreska pseudotaktowa	!	!LO:TX:t=P:problem=kreska pseudotaktowa	!	!	!
2A\	.	2F/	.	2c/	-mi-	.	.
=10	=10	=10	=10	=10	=10	=10-	=10-
!	!	!	!	!	!	!LO:TX:a:t=2	!
2B-\	.	2r	.	2.d\	-nus	0f	.
!	!	!LO:TX:t=P:problem=kreska pseudotaktowa	!	!	!	!	!
4A\	.	2B-/	Do:-	.	.	.	.
!LO:TX:t=P:problem=kreska pseudotaktowa	!	!	!	!	!	!	!
4G\	.	.	.	4e\	.	.	.
*custos:F	*	*custos:c	*	*	*	*	*
!LO:LB:g=original	!	!LO:LB:g=original	!	!	!	!	!
2F/	.	2c/	.	2f\	.	.	.
!	!	!	!	!LO:TX:t=P:problem=kreska pseudotaktowa	!	!	!
2A\	.	2F/	-mi-	2c/	.	.	.
=11-	=11-	=11-	=11-	=11	=11	=11-	=11-
*	*	*	*	*	*	*lig	*
1G	.	1B-	-nus	2.d\	.	1g	.
.	.	.	.	4e\	.	.	.
!LO:TX:t=P:problem=kreska pseudotaktowa	!	!LO:TX:t=P:problem=kreska pseudotaktowa	!	!	!	!LO:TX:t=P:problem=kreska pseudotaktowa	!
1F	-ctus	1c	.	2f\	.	1a	.
!	!	!	!	!LO:TX:t=P:problem=kreska pseudotaktowa	!	!	!
.	.	.	.	2c/	de-	.	.
*	*	*	*	*	*	*Xlig	*
=12	=12	=12	=12	=12-	=12-	=12	=12
2r	.	2r	.	2d\	-us	2b-/	.
*	*ij	*	*	*	*	*	*
2C/	SAN-	2c/	de-	2e\	.	2g/	.
2F/	.	2.A/	-us	2f\	.	2a/	.
!	!	!	!	!LO:TX:t=P:problem=kreska pseudotaktowa	!	!	!
4E/	.	.	.	2F/	.	4g/	.
!LO:TX:t=P:problem=kreska pseudotaktowa	!	!LO:TX:t=P:problem=kreska pseudotaktowa	!	!	!	!LO:TX:t=P:problem=kreska pseudotaktowa	!
4D/	.	4B-/	.	.	.	4f/	.
=13	=13	=13	=13	=13	=13	=13	=13
2C/	.	4c/	.	1G	.	2e/	.
.	.	4F/	.	.	.	.	.
*	*	*	*ij	*	*	*	*
2E/	.	1c	de-	.	.	2.g/	.
1D	.	.	.	2A/	.	.	.
.	.	.	.	.	.	4f/	.
.	.	2B-/	.	2F/	.	1f/	.
=14-	=14-	=14-	=14-	=14-	=14-	=14-	=14-
!	!	!LO:TX:a:t=P:problem=znak repetycji nad nutą	!	!	!	!	!
!LO:TX:t=P:problem=kreska pseudotaktowa	!	!LO:TX:t=P:problem=kreska pseudotaktowa	!	!	!	!	!
1C	-ctus	1c	-us	1G	.	.	.
*	*Xij	*	*Xij	*	*	*	*
!	!	!	!	!	!	!LO:TX:t=P:problem=kreska pseudotaktowa	!
.	.	.	.	.	.	2e/	.
*	*	*	*	*	*	*custos:f	*
!	!	!	!	!	!	!LO:PB:g=original	!
!	!	!	!	!	!	!LO:TX:a:t=P:problem=znak repetycji nad nutą?	!
*	*ij	*	*ij	*	*	*	*
!LO:TX:b:t=P:problem=niezidentyfikowany symbol pod nutą	!	!	!	!LO:TX:t=P:problem=symbol repetycji nad nutą?	!	!	!
2.F/	SAN-	2r	.	2F/	.	1f	.
.	.	1f\	de-	1c\	.	.	.
4G\	.	.	.	.	.	.	.
=15-	=15-	=15-	=15-	=15-	=15-	=15-	=15-
4A\	.	.	.	.	.	2r	.
4B-\	.	.	.	.	.	.	.
!	!	!	!	!LO:TX:t=P:problem=kreska pseudotaktowa	!	!	!
1c	.	2e\	.	2c/	.	2cc/	Do-
!	!	!LO:TX:t=P:problem=kreska pseudotaktowa	!	!	!	!	!
.	.	1d	-us	1f	.	1dd	.
*	*	*	*Xij	*	*	*	*
2B-\	.	.	.	.	.	.	.
=16-	=16-	=16	=16	=16-	=16-	=16-	=16-
!LO:TX:t=P:problem=kreska pseudotaktowa	!	!	!	!	!	!LO:TX:t=P:problem=kreska pseudotaktowa	!
1c	-ctus	2r	.	1e	.	1ee	-mi-
*	*Xij	*	*	*	*	*	*
.	.	2c/	Sa-	.	.	.	.
2r	.	2d\	.	2r	.	2ff\	-nus
!	!	!	!	!LO:TX:t=P:problem=kreska pseudotaktowa	!	!	!
2G\	Do-	2B-/	-ba-	2g\	Sab-	2.dd\	de-
=17-	=17-	=17-	=17-	=17	=17	=17-	=17-
2A\	-mi-	1c	.	2e\	-ba-	.	.
.	.	.	.	.	.	4cc/	.
2A\	-nus	.	.	2.f\	.	1cc	-us
!LO:TX:t=P:problem=kreska pseudotaktowa	!	!	!	!	!	!	!
1F	.	0d	.	.	.	.	.
.	.	.	.	4g\	-oth	.	.
!	!	!	!	!LO:TX:t=P:problem=kreska pseudotaktowa	!	!	!
.	.	.	.	2a\	.	4b-/	Sa-
.	.	.	.	.	.	4a/	.
*	*	*	*	*custos:d	*	*	*
!	!	!	!	!LO:LB:g=original	!	!	!
=18	=18	=18-	=18-	=18	=18	=18-	=18-
2.G\	de-	.	.	2d\	.	1b-	-ba-
.	.	.	.	2.g\	.	.	.
4F/	-us	.	.	.	.	.	.
!	!	!LO:TX:t=P:problem=kreska pseudotaktowa	!	!	!	!LO:TX:t=P:problem=kreska pseudotaktowa	!
4E/	.	0c	-oth	.	.	1cc	-oth.
4D/	.	.	.	4f\	.	.	.
2.C/	Sa-	.	.	4e\	.	.	.
!	!	!	!	!LO:TX:t=P:problem=kreska pseudotaktowa	!	!	!
.	.	.	.	4d\	.	.	.
=19-	=19-	=19	=19	=19	=19	=19	=19
.	.	.	.	4e\	.	2r	.
4D/	.	.	.	4d\	.	.	.
!LO:TX:t=P:problem=kreska pseudotaktowa	!	!	!	!	!	!	!
2E/	.	.	.	4c/	.	2.cc/	Sa-
.	.	.	.	4B-/	.	.	.
*custos:F	*	*	*	*	*	*	*
!LO:LB:g=original	!	!	!	!	!	!	!
2.F/	.	1c	.	4A/	.	.	.
.	.	.	.	4G/	.	4b-/	.
.	.	.	.	1c\	.	1a/	.
4E/	.	.	.	.	.	.	.
=20-	=20-	=20-	=20-	=20-	=20-	=20-	=20-
1D	.	2d\	.	.	.	.	.
!	!	!	!	!LO:TX:t=P:problem=kreska pseudotaktowa	!	!	!
.	.	1f	.	2B-/	.	4g/	.
!	!	!	!	!	!	!LO:TX:t=P:problem=kreska pseudotaktowa	!
.	.	.	.	.	.	4f/	.
!LO:TX:t=P:problem=kreska pseudotaktowa	!	!	!	!	!	!	!
1C	.	.	.	2.c/	.	1g	.
!	!	!LO:TX:t=P:problem=kreska pseudotaktowa	!	!	!	!	!
.	.	2e\	.	.	.	.	.
.	.	.	.	4B-/	.	.	.
=21	=21	=21	=21	=21-	=21-	=21-	=21-
1.F	.	2.f\	ij	4A/	.	2.a/	-ba-
.	.	.	.	4G/	.	.	.
.	.	.	.	1F	.	.	.
.	.	4e\	.	.	.	4g/	.
.	.	4d\	.	.	.	4f/	-oth
.	.	4c/	.	.	.	4e/	.
!	!	!	!	!LO:TX:t=P:problem=kreska pseudotaktowa	!	!	!
2A\	.	2.d\	.	2F/	.	1f/	.
=22-	=22-	=22-	=22-	=22-	=22-	=22-	=22-
1G	.	.	.	1B-	.	.	.
.	.	4c/	.	.	.	.	.
.	.	1B-	.	.	.	2e/	.
1F	.	.	.	1c	.	[1f/l	.
!	!	!LO:TX:t=P:problem=kreska pseudotaktowa	!	!	!	!	!
.	.	2A/	.	.	.	.	.
*	*	*custos:B-	*	*	*	*	*
!	!	!LO:LB:g=original	!	!	!	!	!
=23-	=23-	=23	=23	=23-	=23-	=23-	=23-
1BB-	.	2.B-/	.	1d	.	0f_	.
.	.	4A/	.	.	.	.	.
*lig	*	*	*	*	*	*	*
1C	-ba-	2G/	.	2.c/	.	.	.
!	!	!LO:TX:t=P:problem=kreska pseudotaktowa	!	!	!	!	!
.	.	2G/	.	.	.	.	.
.	.	.	.	4B-/	.	.	.
=24-	=24-	=24	=24	=24-	=24-	=24-	=24-
1D	.	1F	.	1A	.	0f_	.
*Xlig	*	*	*	*	*	*	*
0BB-	-oth	0B-	.	2d\	.	.	.
.	.	.	.	1d\	.	.	.
=25-	=25-	=25-	=25-	=25-	=25-	=25-	=25-
.	.	.	.	.	.	1f_	.
.	.	.	.	4c/	.	.	.
.	.	.	.	4B-/	.	.	.
!LO:TX:t=P:problem=kreska pseudotaktowa	!	!LO:TX:t=P:problem=kreska pseudotaktowa	!	!LO:TX:t=P:problem=kreska pseudotaktowa	!	!	!
00F\	.	00A/	.	00c\	.	00f]	.
*	*	*	*	*custos:f	*	*custos:cc	*
!LO:LB:g=original	!	!	!	!LO:PB:g=original	!	!LO:LB:g=original	!
=26||	=26||	=26||	=26||	=26||	=26||	=26||	=26||
!LO:TX:a:t=Pleni Tacet.	!	!LO:TX:a:t=Pleni dormin(un)t&colon;	!	!	!	!	!
*	*	*	*	*met(C|)	*	*met(C|)	*
0ryy	.	0ryy	.	0f	Ple-	1.cc	Ple-
.	.	.	.	.	.	2cc\	-ni
=27-	=27-	=27-	=27-	=27-	=27-	=27-	=27-
0ryy	.	0ryy	.	1f	-ni	1a	ſunt
!	!	!	!	!	!	!LO:TX:t=P:problem=kreska pseudotaktowa	!
.	.	.	.	1d	ſ(u)nt	1b-	.
=28-	=28-	=28-	=28-	=28-	=28-	=28-	=28-
0ryy	.	0ryy	.	1e	cae-	2.cc\	cae-
.	.	.	.	.	.	8b-\	.
.	.	.	.	.	.	8cc\	-li
!	!	!	!	!LO:TX:t=P:problem=kreska pseudotaktowa	!	!	!
.	.	.	.	0.f	-li	2dd\	et
.	.	.	.	.	.	2.cc\	.
=29-	=29-	=29-	=29-	=29	=29	=29-	=29-
0ryy	.	0ryy	.	.	.	.	.
.	.	.	.	.	.	4b-/	.
.	.	.	.	.	.	4a/	.
!	!	!	!	!	!	!LO:TX:t=P:problem=kreska pseudotaktowa	!
.	.	.	.	.	.	4g/	.
.	.	.	.	.	.	2f/	.
.	.	.	.	.	.	2a/	.
=30-	=30-	=30-	=30-	=30-	=30-	=30-	=30-
0ryy	.	0ryy	.	2r	.	1g	.
.	.	.	.	2c/	et	.	.
.	.	.	.	2d/	t(er)-	2f/	.
.	.	.	.	2c/	-ra	1cc\	.
=31-	=31-	=31-	=31-	=31-	=31-	=31-	=31-
0ryy	.	0ryy	.	2.f\	.	.	.
!	!	!	!	!	!	!LO:TX:t=P:problem=kreska pseudotaktowa	!
.	.	.	.	.	.	2cc\	.
.	.	.	.	4e/	.	.	.
.	.	.	.	1d	.	2dd\	.
.	.	.	.	.	.	1ff\	.
=32-	=32-	=32-	=32-	=32-	=32-	=32-	=32-
!	!	!	!	!LO:TX:t=P:problem=kreska pseudotaktowa	!	!	!
0ryy	.	0ryy	.	1c	.	.	.
!	!	!	!	!	!	!LO:TX:t=P:problem=kreska pseudotaktowa	!
.	.	.	.	.	.	2ee\	.
.	.	.	.	2r	.	2.ff\	.
.	.	.	.	1f\	.	.	.
.	.	.	.	.	.	4ee\	.
=33-	=33-	=33-	=33-	=33-	=33-	=33-	=33-
0ryy	.	0ryy	.	.	.	2dd\	.
.	.	.	.	2e\	ÿ	1cc	.
.	.	.	.	2.f\	.	.	.
.	.	.	.	.	.	2b-/	t(er)-
!	!	!	!	!LO:TX:t=P:problem=kreska pseudotaktowa	!	!	!
.	.	.	.	4g\	.	.	.
=34-	=34-	=34-	=34-	=34	=34	=34-	=34-
!	!	!	!	!	!	!LO:TX:t=P:problem=kreska pseudotaktowa	!
0ryy	.	0ryy	.	4a\	.	0cc	-ra
.	.	.	.	4g\	.	.	.
.	.	.	.	1a	.	.	.
.	.	.	.	4g\	.	.	.
!	!	!	!	!LO:TX:t=P:problem=kreska pseudotaktowa	!	!	!
.	.	.	.	4f\	.	.	.
=35-	=35-	=35-	=35-	=35	=35	=35	=35
0ryy	.	0ryy	.	2e\	.	2r	.
.	.	.	.	2f\	.	1cc	ÿ
.	.	.	.	1g	.	.	.
!	!	!	!	!	!	!LO:TX:t=P:problem=kreska pseudotaktowa	!
.	.	.	.	.	.	2b-/	.
=36-	=36-	=36-	=36-	=36-	=36-	=36	=36
!	!	!	!	!LO:TX:t=P:problem=kreska pseudotaktowa	!	!	!
0ryy	.	0ryy	.	0f	.	2cc/	.
.	.	.	.	.	.	1dd	.
.	.	.	.	.	.	4cc/	.
!	!	!	!	!	!	!LO:TX:t=P:problem=kreska pseudotaktowa	!
.	.	.	.	.	.	4b-/	.
*	*	*	*	*	*	*custos:a	*
!	!	!	!	!	!	!LO:LB:g=original	!
=37-	=37-	=37-	=37-	=37	=37	=37	=37
0ryy	.	0ryy	.	2r	.	2.a/	.
.	.	.	.	2.F/	.	.	.
.	.	.	.	.	.	4b-/	.
.	.	.	.	.	.	4cc\	.
.	.	.	.	4G/	.	4b-/	.
.	.	.	.	4A/	.	2.cc\	glo-
!	!	!	!	!LO:TX:t=P:problem=kreska pseudotaktowa	!	!	!
.	.	.	.	4B-/	.	.	.
*	*	*	*	*custos:c	*	*	*
!	!	!	!	!LO:LB:g=original	!	!	!
=38-	=38-	=38-	=38-	=38	=38	=38-	=38-
0ryy	.	0ryy	.	1c	.	.	.
.	.	.	.	.	.	4b-/	.
.	.	.	.	.	.	4a/	-ri-
!	!	!	!	!	!	!LO:TX:t=P:problem=kreska pseudotaktowa	!
.	.	.	.	.	.	4g/	.
.	.	.	.	2d\	.	2f/	-a
!	!	!	!	!LO:TX:t=P:problem=kreska pseudotaktowa	!	!	!
.	.	.	.	2c/	.	1cc\	.
=39-	=39-	=39-	=39-	=39	=39	=39-	=39-
0ryy	.	0ryy	.	1F	.	.	.
.	.	.	.	.	.	4b-/	.
!	!	!	!	!	!	!LO:TX:t=P:problem=kreska pseudotaktowa	!
.	.	.	.	.	.	4a/	.
.	.	.	.	2G/	.	2b-/	.
.	.	.	.	2A/	.	2.a/	.
=40-	=40-	=40-	=40-	=40-	=40-	=40-	=40-
!	!	!	!	!LO:TX:t=P:problem=kreska pseudotaktowa	!	!	!
0ryy	.	0ryy	.	1F	.	.	.
.	.	.	.	.	.	4g/	.
.	.	.	.	.	.	1f	.
.	.	.	.	1c	glo-	.	.
!	!	!	!	!	!	!LO:TX:t=P:problem=kreska pseudotaktowa	!
.	.	.	.	.	.	2e/	.
=41-	=41-	=41-	=41-	=41-	=41-	=41	=41
0ryy	.	0ryy	.	2d\	-ri-	2f/	.
.	.	.	.	2e\	-a	1cc	.
.	.	.	.	2c/	.	.	.
!	!	!	!	!	!	!LO:TX:t=P:problem=kreska pseudotaktowa	!
.	.	.	.	1f\	.	2cc\	.
=42-	=42-	=42-	=42-	=42-	=42-	=42	=42
0ryy	.	0ryy	.	.	.	2dd\	.
!	!	!	!	!LO:TX:t=P:problem=kreska pseudotaktowa	!	!	!
.	.	.	.	2e\	.	2.cc\	.
.	.	.	.	2.f\	tu-	.	.
.	.	.	.	.	.	4b-/	.
.	.	.	.	.	.	4a/	.
.	.	.	.	4g\	.	4g/	.
=43-	=43-	=43-	=43-	=43-	=43-	=43-	=43-
0ryy	.	0ryy	.	4a\	.	2f/	.
.	.	.	.	4g\	.	.	.
!	!	!	!	!LO:TX:t=P:problem=kreska pseudotaktowa	!	!	!
.	.	.	.	2.a\	.	2.cc\	tu-
.	.	.	.	4g\	.	4b-/	.
.	.	.	.	2.f\	.	2a/	.
=44-	=44-	=44-	=44-	=44-	=44-	=44-	=44-
!	!	!	!	!	!	!LO:TX:t=P:problem=kreska pseudotaktowa	!
0ryy	.	0ryy	.	.	.	1g	-a
.	.	.	.	8e\	.	.	.
.	.	.	.	8d\	.	.	.
!	!	!	!	!LO:TX:t=P:problem=kreska pseudotaktowa	!	!	!
.	.	.	.	2e\	.	.	.
.	.	.	.	2d\	.	2r	.
.	.	.	.	2c/	-a	2cc\	.
=45-	=45-	=45-	=45-	=45-	=45-	=45-	=45-
!	!	!	!	!LO:TX:t=P:problem=kreska pseudotaktowa	!	!	!
0ryy	.	0ryy	.	1f	.	2cc\	.
!	!	!	!	!	!	!LO:TX:t=P:problem=kreska pseudotaktowa	!
.	.	.	.	.	.	2cc\	.
.	.	.	.	2r	.	2b-/	.
.	.	.	.	2c/	.	2.cc\	.
=46-	=46-	=46-	=46-	=46-	=46-	=46-	=46-
0ryy	.	0ryy	.	2c/	.	.	.
.	.	.	.	.	.	4b-/	.
.	.	.	.	2c/	ÿ	1a	.
.	.	.	.	4d\	.	.	.
.	.	.	.	4c/	.	.	.
!	!	!	!	!	!	!LO:TX:t=P:problem=kreska pseudotaktowa	!
.	.	.	.	4d\	.	2g/	.
.	.	.	.	4e\	.	.	.
*	*	*	*	*	*	*custos:a	*
!	!	!	!	!	!	!LO:LB:g=original	!
=47-	=47-	=47-	=47-	=47-	=47-	=47	=47
0ryy	.	0ryy	.	2c/	.	2a/	.
.	.	.	.	2A/	.	2cc\	.
!	!	!	!	!LO:TX:t=P:problem=kreska pseudotaktowa	!	!	!
.	.	.	.	1G	.	4b-/	.
.	.	.	.	.	.	4a/	.
.	.	.	.	.	.	4b-/	.
.	.	.	.	.	.	4cc/	.
*	*	*	*	*custos:F	*	*	*
!	!	!	!	!LO:LB:g=original	!	!	!
=48-	=48-	=48-	=48-	=48	=48	=48-	=48-
0ryy	.	0ryy	.	2F/	.	2a/	.
.	.	.	.	2A/	.	1f	.
.	.	.	.	4B-/	.	.	.
.	.	.	.	4A/	.	.	.
.	.	.	.	4B-/	.	2e/	.
.	.	.	.	4c/	.	.	.
=49-	=49-	=49-	=49-	=49-	=49-	=49-	=49-
0ryy	.	0ryy	.	2A/	.	00.f/;>	.
.	.	.	.	1B-	.	.	.
.	.	.	.	4A/	.	.	.
.	.	.	.	4G/	.	.	.
=50-	=50-	=50-	=50-	=50-	=50-	=50-	=50-
00ryy	.	00ryy	.	00F/	.	.	.
=51||-	=51||-	=51||-	=51||-	=51||	=51||	=51||	=51||
*clefF3	*	*clefC3	*	*clefC3	*	*clefG2	*
*M3/1	*	*M3/1	*	*M3/1	*	*M3/1	*
*met(C3)	*	*met(C3)	*	*met(C3)	*	*met(C3)	*
*k[b-]	*	*k[b-]	*	*k[b-]	*	*k[b-]	*
1F\	O-	1c\	O-	1f\	O-	1a/	O-
1F\	-ſan-	1c\	-ſan-	1f\	-ſan-	1a/	-ſan-
!LO:TX:t=P:problem=kreska pseudotaktowa	!	!LO:TX:t=P:problem=kreska pseudotaktowa	!	!LO:TX:t=P:problem=kreska pseudotaktowa	!	!LO:TX:t=P:problem=kreska pseudotaktowa	!
1C/	-na.	1c\	-na	1e\	.	1g/	.
=52	=52	=52	=52	=52	=52	=52	=52
0G	.	1d\	ni	1.g\	-na	0b-	-na
.	.	1.B-/	ex-	.	.	.	.
.	.	.	.	2f\	in	.	.
1G\	.	.	.	2d\	.	1b-/	in
!	!	!	!	!LO:TX:t=P:problem=kreska pseudotaktowa	!	!	!
.	.	2c/	-cel-	2e\	.	.	.
=53-	=53-	=53-	=53-	=53	=53	=53-	=53-
1.F\	.	1d\	-ſis	0f	ex-	1.a/	.
!	!	!LO:TX:t=P:problem=kreska pseudotaktowa	!	!	!	!	!
.	.	0c	.	.	.	.	.
2E/	.	.	.	.	.	2b-/	ex-
!LO:TX:t=P:problem=kreska pseudotaktowa	!	!	!	!	!	!LO:TX:t=P:problem=kreska pseudotaktowa	!
1C/	.	.	.	1e\	-cel-	1cc\	.
=54	=54	=54	=54	=54-	=54-	=54	=54
1.G\	.	1.B-/	.	1d\	-ſiſ	1.dd\	-cel-
.	.	.	.	2B-/	.	.	.
2A\	.	2A/	.	2c/	.	2cc\	-ſiſ
1B-\	.	1G/	.	2d/	.	1b-\	.
!	!	!	!	!LO:TX:t=P:problem=kreska pseudotaktowa	!	!	!
.	.	.	.	2e\	.	.	.
=55-	=55-	=55-	=55-	=55	=55	=55-	=55-
1.F\	.	0c	.	0f	.	0a	.
2G\	.	.	.	.	.	.	.
!LO:TX:t=P:problem=kreska pseudotaktowa	!	!LO:TX:t=P:problem=kreska pseudotaktowa	!	!	!	!LO:TX:t=P:problem=kreska pseudotaktowa	!
1A\	.	1c\	.	1c\	.	1r	.
*	*	*custos:A	*	*	*	*	*
!	!	!LO:PB:g=original	!	!	!	!	!
=56	=56	=56	=56	=56-	=56-	=56	=56
*col	*	*	*	*	*	*	*
1D/	.	1A/	.	0f	.	1dd\	.
0G	.	0B-	.	.	.	1dd\	.
!	!	!	!	!LO:TX:t=P:problem=kreska pseudotaktowa	!	!	!
.	.	.	.	1g\	.	1dd\	.
*Xcol	*	*	*	*	*	*	*
*	*	*	*	*custos:a	*	*	*
!	!	!	!	!LO:LB:g=original	!	!	!
=57-	=57-	=57-	=57-	=57	=57	=57-	=57-
!LO:TX:t=P:problem=kreska pseudotaktowa	!	!	!	!	!	!	!
0.F	.	0.c	.	1.a\	.	1.ff\	ij
.	.	.	.	2g\	.	2ee\	.
.	.	.	.	1f\	.	2cc\	.
!	!	!	!	!	!	!LO:TX:t=P:problem=kreska pseudotaktowa	!
.	.	.	.	.	.	2dd\	.
*	*	*	*	*	*	*custos:ee	*
!	!	!	!	!	!	!LO:LB:g=original	!
=58	=58	=58-	=58-	=58-	=58-	=58	=58
1C/	.	1.G/	o-	1.g\	.	1ee\	.
1G\	.	.	.	.	.	1.dd\	.
.	.	2A/	-ſan-	2f\	.	.	.
!	!	!LO:TX:t=P:problem=kreska pseudotaktowa	!	!LO:TX:t=P:problem=kreska pseudotaktowa	!	!	!
1G\	.	1B-/	-na	1d\	.	.	.
.	.	.	.	.	.	2cc/	.
=59-	=59-	=59	=59	=59	=59	=59-	=59-
1C/	ni	1G/	.	1e\	.	0cc	.
!LO:TX:t=P:problem=kreska pseudotaktowa	!	!	!	!	!	!	!
0G	ex-	1.g\	.	0d	.	.	.
!	!	!	!	!	!	!LO:TX:t=P:problem=kreska pseudotaktowa	!
!	!	!	!	!	!	!LO:SIC:v:s:t=1bn\	!
.	.	.	.	.	.	1b-\	.
.	.	2f\	.	.	.	.	.
*custos:C	*	*	*	*	*	*	*
!LO:LB:g=original	!	!	!	!	!	!	!
=60	=60	=60-	=60-	=60-	=60-	=60	=60
1.C/	-el-	2e/	.	2c/	.	1cc\	.
.	.	2d/	.	2d\	.	.	.
.	.	1.c/	.	2e\	.	0g	.
2D/	.	.	.	2f\	.	.	.
!	!	!	!	!LO:TX:t=P:problem=kreska pseudotaktowa	!	!	!
2E/	.	.	.	1g\	.	.	.
!LO:TX:t=P:problem=kreska pseudotaktowa	!	!LO:TX:t=P:problem=kreska pseudotaktowa	!	!	!	!	!
2F/	.	2d/	.	.	.	.	.
=61	=61	=61	=61	=61	=61	=61-	=61-
!	!	!	!	!	!	!LO:TX:t=P:problem=kreska pseudotaktowa	!
2G\	.	2e/	.	0.G	.	0.g	.
2A\	.	2c/	.	.	.	.	.
1.B-\	.	1.d\	.	.	.	.	.
!LO:TX:t=P:problem=kreska pseudotaktowa	!	!LO:TX:t=P:problem=kreska pseudotaktowa	!	!	!	!	!
2A\	.	2c/	.	.	.	.	.
=62	=62	=62	=62	=62-	=62-	=62	=62
1F\	.	0f	.	0d	.	1a/	.
0G	.	.	.	.	.	0b-	.
!	!	!	!	!LO:TX:t=P:problem=kreska pseudotaktowa	!	!	!
.	.	1e\	.	1B-/	.	.	.
=63-	=63-	=63-	=63-	=63	=63	=63-	=63-
*col	*	*	*	*	*	*	*
1F\	.	0f	.	1c\	.	1a/	.
0BB-	.	.	.	1.d\	.	1.f/	.
!	!	!LO:TX:t=P:problem=kreska pseudotaktowa	!	!	!	!	!
.	.	1d\	.	.	.	.	.
!	!	!	!	!LO:TX:t=P:problem=kreska pseudotaktowa	!	!LO:TX:t=P:problem=kreska pseudotaktowa	!
.	.	.	.	2c/	.	2g/	.
*Xcol	*	*	*	*	*	*	*
=64-	=64-	=64	=64	=64	=64	=64	=64
!LO:TX:t=P:problem=kreska pseudotaktowa	!	!	!	!	!	!	!
0.F	.	0.f	In	1A/	.	2a/	.
.	.	.	.	.	.	2b-/	.
.	.	.	.	2F/	.	2cc\	.
.	.	.	.	2G/	.	2b-/	.
.	.	.	.	2A/	.	2a/	.
!	!	!	!	!	!	!LO:TX:t=P:problem=kreska pseudotaktowa	!
.	.	.	.	2B-/	.	2g/	.
=65	=65	=65-	=65-	=65-	=65-	=65	=65
*col	*	*col	*	*	*	*	*
*lig	*	*lig	*	*	*	*	*
1F\	.	1c\	ex-	1.c\	.	1a/	.
1C/	.	1e\	.	.	.	1.g/	.
.	.	.	.	2B-/	.	.	.
*Xlig	*	*Xlig	*	*	*	*	*
*lig	*	*	*	*	*	*	*
1D/	-ſis	0d\	-cel-	1A/	.	.	.
.	.	.	.	.	.	2f/	.
=66-	=66-	=66-	=66-	=66-	=66-	=66-	=66-
1BB-/	.	.	.	1B-/	.	0f	.
*Xlig	*	*	*	*	*	*	*
0C	.	0c	.	0G	.	.	.
.	.	.	.	.	.	1e/	.
*Xcol	*	*Xcol	*	*	*	*	*
=67-	=67-	=67-	=67-	=67-	=67-	=67-	=67-
!LO:TX:t=P:problem=kreska pseudotaktowa	!	!LO:TX:t=P:problem=kreska pseudotaktowa	!	!LO:TX:t=P:problem=kreska pseudotaktowa	!	!LO:TX:t=P:problem=kreska pseudotaktowa	!
00F\;>	.	00c\	-ſis	00F/	.	00f/	.
*custos:F	*	*	*	*custos:f	*	*custos:cc	*
!LO:PB:g=original	!	!	!	!LO:LB:g=original	!	!LO:PB:g=original	!
=68||	=68||	=68||	=68||	=68||	=68||	=68||	=68||
*M2/1	*	*M2/1	*	*M2/1	*	*M2/1	*
*met(C|)	*	*met(C|)	*	*met(C|)	*	*met(C|)	*
!	!	!LO:TX:a:t=Benedict(us) Tacet.\nut\nOsanna ut Supra	!	!	!	!	!
2.F/	Be-	0ryy	.	0f	Be-	2.cc/	Be-
4G/	.	.	.	.	.	4b-/	-ne-
2A/	-ne-	.	.	.	.	2cc/	-dic-
1B-\	-dic-	.	.	.	.	1dd/	.
=69-	=69-	=69-	=69-	=69-	=69-	=69-	=69-
.	.	0ryy	.	0f	-ne-	.	.
4A\	-tus	.	.	.	.	4cc/	.
!LO:TX:t=P:problem=kreska pseudotaktowa	!	!	!	!	!	!	!
4G\	.	.	.	.	.	4b-/	.
!	!	!	!	!	!	!LO:TX:t=P:problem=kreska pseudotaktowa	!
2F/	.	.	.	.	.	2a/	-tus
1A\	.	.	.	.	.	1cc\	.
=70-	=70-	=70-	=70-	=70-	=70-	=70-	=70-
.	.	0ryy	.	0e	-dic-	.	.
4G/	.	.	.	.	.	4b-/	.
!LO:TX:t=P:problem=kreska pseudotaktowa	!	!	!	!	!	!	!
4F/	.	.	.	.	.	4a/	.
!	!	!	!	!	!	!LO:TX:t=P:problem=kreska pseudotaktowa	!
2.c\	.	.	.	.	.	1g	.
4B-\	.	.	.	.	.	.	.
=71-	=71-	=71-	=71-	=71-	=71-	=71	=71
!	!	!	!	!LO:TX:t=P:problem=kreska pseudotaktowa	!	!	!
4A\	.	0ryy	.	1f	-tuſ	1.a	.
4G\	.	.	.	.	.	.	.
!LO:TX:t=P:problem=kreska pseudotaktowa	!	!	!	!	!	!	!
2F/	.	.	.	.	.	.	.
2F/	.	.	.	2r	.	.	.
4E/	.	.	.	1f\	.	2f/	.
4D/	.	.	.	.	.	.	.
=72-	=72-	=72-	=72-	=72-	=72-	=72-	=72-
1G	.	0ryy	.	.	.	1b-	.
!	!	!	!	!LO:TX:t=P:problem=kreska pseudotaktowa	!	!	!
.	.	.	.	2e\	.	.	.
!LO:TX:t=P:problem=kreska pseudotaktowa	!	!	!	!	!	!	!
1F	.	.	.	2f\	ÿ	2a/	.
.	.	.	.	2.F/	.	1cc\	.
=73	=73	=73-	=73-	=73-	=73-	=73-	=73-
2r	.	0ryy	.	.	.	.	.
.	.	.	.	4G/	.	.	.
2F/	.	.	.	4A/	.	4b-/	.
!	!	!	!	!LO:TX:t=P:problem=kreska pseudotaktowa	!	!LO:TX:t=P:problem=kreska pseudotaktowa	!
.	.	.	.	4B-/	.	4a/	.
2E/	.	.	.	2.c/	.	2g/	.
2.A\	.	.	.	.	.	2.cc/	.
!	!	!	!	!LO:TX:t=P:problem=kreska pseudotaktowa	!	!	!
.	.	.	.	4B-/	.	.	.
=74-	=74-	=74-	=74-	=74	=74	=74-	=74-
.	.	0ryy	.	4A/	.	.	.
4G\	.	.	.	4G/	.	4b-/	.
!	!	!	!	!LO:TX:t=P:problem=kreska pseudotaktowa	!	!	!
4F/	.	.	.	2F/	.	4a/	.
!LO:TX:t=P:problem=kreska pseudotaktowa	!	!	!	!	!	!	!
4E/	.	.	.	.	.	4g/	.
2D/	.	.	.	1.f	qui	1a	.
!LO:TX:t=P:problem=kreska pseudotaktowa	!	!	!	!	!	!	!
2F/	.	.	.	.	.	.	.
*custos:G	*	*	*	*	*	*	*
!LO:LB:g=original	!	!	!	!	!	!	!
=75	=75	=75-	=75-	=75-	=75-	=75-	=75-
1G	.	0ryy	.	.	.	1b-	.
.	.	.	.	4e\	.	.	.
!	!	!	!	!LO:TX:t=P:problem=kreska pseudotaktowa	!	!	!
.	.	.	.	4d\	.	.	.
!	!	!	!	!	!	!LO:TX:t=P:problem=kreska pseudotaktowa	!
2.F/	.	.	.	1c	.	0a	.
4E/	.	.	.	.	.	.	.
=76-	=76-	=76-	=76-	=76-	=76-	=76	=76
2D/	.	0ryy	.	2d\	ve-	.	.
!	!	!	!	!LO:TX:t=P:problem=kreska pseudotaktowa	!	!	!
2C/	.	.	.	2e\	.	.	.
!	!	!	!	!LO:TX:a:t=2.	!	!	!
!	!	!	!	!LO:TX:t=P:problem=kreska pseudotaktowa	!	!	!
00F\	.	.	.	0f	-nit	2r	.
.	.	.	.	.	.	1cc\	qui
=77-	=77-	=77-	=77-	=77	=77	=77-	=77-
.	.	0ryy	.	.	.	.	.
.	.	.	.	.	.	2cc/	ve-
.	.	.	.	2r	.	2dd/	.
.	.	.	.	1f\	qui	2.ff\	-nit
=78-	=78-	=78-	=78-	=78-	=78-	=78-	=78-
.	.	0ryy	.	.	.	.	.
.	.	.	.	.	.	4ee\	.
!	!	!	!	!LO:TX:t=P:problem=kreska pseudotaktowa	!	!	!
.	.	.	.	2f\	ve:-	4dd\	.
!	!	!	!	!	!	!LO:TX:t=P:problem=kreska pseudotaktowa	!
.	.	.	.	.	.	4cc\	in
*	*	*	*	*custos:g	*	*custos:b-	*
!	!	!	!	!LO:PB:g=original	!	!LO:LB:g=original	!
2r	.	.	.	2g\	.	2b-/	no-
!	!	!	!	!LO:TX:t=P:problem=kreska pseudotaktowa	!	!	!
2.F/	qui	.	.	2.a\	-nit	2.cc/	.
=79-	=79-	=79-	=79-	=79	=79	=79-	=79-
.	.	0ryy	.	.	.	.	.
4G\	.	.	.	4g\	.	4b-/	.
!LO:TX:t=P:problem=kreska pseudotaktowa	!	!	!	!	!	!	!
2A\	.	.	.	4f\	.	4a/	.
!	!	!	!	!LO:TX:t=P:problem=kreska pseudotaktowa	!	!LO:TX:t=P:problem=kreska pseudotaktowa	!
.	.	.	.	4e\	.	4g/	.
2B-\	ve-	.	.	2d/	.	2f/	.
2c\	-nit	.	.	1c\	.	2.a/	.
=80-	=80-	=80-	=80-	=80-	=80-	=80-	=80-
2F/	.	0ryy	.	.	.	.	.
.	.	.	.	.	.	4b-/	.
!LO:TX:t=P:problem=kreska pseudotaktowa	!	!	!	!	!	!LO:TX:t=P:problem=kreska pseudotaktowa	!
2A\	.	.	.	1f	.	2cc\	.
2G\	.	.	.	.	.	2b-/	.
4F/	.	.	.	2e\	.	2g/	.
4E/	.	.	.	.	.	.	.
=81-	=81-	=81-	=81-	=81-	=81-	=81-	=81-
!	!	!	!	!LO:TX:t=P:problem=kreska pseudotaktowa	!	!	!
2D/	.	0ryy	.	1f	.	2a/	.
2F/	.	.	.	.	.	1f	-mi-
1C	.	.	.	2r	.	.	.
!	!	!	!	!LO:TX:t=P:problem=kreska pseudotaktowa	!	!LO:TX:t=P:problem=kreska pseudotaktowa	!
.	.	.	.	2g\	.	2e/	-ne
=82-	=82-	=82-	=82-	=82	=82	=82	=82
!LO:TX:t=P:problem=kreska pseudotaktowa	!	!	!	!	!	!	!
1F	.	0ryy	.	2.a\	ni	2f/	.
.	.	.	.	.	.	2.a/	.
!	!	!	!	!LO:TX:t=P:problem=kreska pseudotaktowa	!	!	!
.	.	.	.	4g\	.	.	.
2r	.	.	.	2e\	no-	.	.
.	.	.	.	.	.	4g/	.
!	!	!	!	!	!	!LO:TX:t=P:problem=kreska pseudotaktowa	!
2c\	ni	.	.	2g\	-mi-	2e/	.
=83-	=83-	=83-	=83-	=83-	=83-	=83	=83
2.d\	no-	0ryy	.	2.f\	-ne	2f/	.
.	.	.	.	.	.	2.d/	.
!LO:TX:t=P:problem=kreska pseudotaktowa	!	!	!	!LO:TX:t=P:problem=kreska pseudotaktowa	!	!	!
4c\	-mi-	.	.	4e\	.	.	.
2A\	-ne	.	.	2c/	.	.	.
.	.	.	.	.	.	4c/	.
2c\	.	.	.	2e\	.	1cc\	.
=84-	=84-	=84-	=84-	=84-	=84-	=84-	=84-
2G\	.	0ryy	.	1d	.	.	.
!	!	!	!	!	!	!LO:SIC:v:s:t=2bn/	!
!LO:TX:t=P:problem=kreska pseudotaktowa	!	!	!	!	!	!	!
2B-\	.	.	.	.	.	2b-/	.
*custos:A	*	*	*	*	*	*	*
!LO:LB:g=original	!	!	!	!	!	!	!
!	!	!	!	!LO:TX:t=P:problem=kreska pseudotaktowa	!	!LO:TX:t=P:problem=kreska pseudotaktowa	!
4A\	.	.	.	1c	.	1cc	.
4B-\	.	.	.	.	.	.	.
4c\	.	.	.	.	.	.	.
4A\	.	.	.	.	.	.	.
=85-	=85-	=85-	=85-	=85	=85	=85	=85
2B-\	.	0ryy	.	2r	.	2r	.
!	!	!	!	!LO:TX:t=P:problem=kreska pseudotaktowa	!	!	!
2c\	.	.	.	2g\	.	2ee\	in
!LO:TX:t=P:problem=kreska pseudotaktowa	!	!	!	!	!	!	!
1F	.	.	.	2.a\	ÿ	2ff\	no-
.	.	.	.	.	.	2.dd\	-(m)i-
!	!	!	!	!LO:TX:t=P:problem=kreska pseudotaktowa	!	!	!
.	.	.	.	4g\	.	.	.
=86	=86	=86-	=86-	=86	=86	=86-	=86-
2r	.	0ryy	.	2e\	.	.	.
.	.	.	.	.	.	4cc/	.
!	!	!	!	!LO:TX:t=P:problem=kreska pseudotaktowa	!	!	!
2c\	do-	.	.	2g\	.	1cc	-(n)e
*	*	*	*	*custos:f	*	*	*
!	!	!	!	!LO:LB:g=original	!	!	!
2.d\	-mi-	.	.	2.f\	.	.	.
!	!	!	!	!	!	!LO:SIC:v:s:t=2bn/	!
!	!	!	!	!	!	!LO:TX:t=P:problem=kreska pseudotaktowa	!
.	.	.	.	.	.	2b-/	.
!	!	!	!	!LO:TX:t=P:problem=kreska pseudotaktowa	!	!	!
4c\	.	.	.	4e\	.	.	.
=87-	=87-	=87-	=87-	=87	=87	=87	=87
2A\	-ni	0ryy	.	2c/	.	2cc\	do-
!LO:TX:t=P:problem=kreska pseudotaktowa	!	!	!	!	!	!	!
2c\	.	.	.	2.e\	.	2g/	-mi-
1G	.	.	.	.	.	1b-	-ni
.	.	.	.	8d/	.	.	.
.	.	.	.	8c/	.	.	.
!	!	!	!	!LO:TX:t=P:problem=kreska pseudotaktowa	!	!	!
.	.	.	.	2d\	.	.	.
=88-	=88-	=88-	=88-	=88	=88	=88-	=88-
2A\	.	0ryy	.	2c/	d(o-	2a/	.
2B-\	.	.	.	2.d\	-mi)-	2f/	.
1G	.	.	.	.	.	2g/	.
.	.	.	.	4c/	-ni	.	.
.	.	.	.	4d\	.	1b-\	.
!	!	!	!	!LO:TX:t=P:problem=kreska pseudotaktowa	!	!	!
.	.	.	.	4e\	.	.	.
=89-	=89-	=89-	=89-	=89	=89	=89-	=89-
[0F\;>l	.	0ryy	.	1.f	.	.	.
.	.	.	.	.	.	4a/	.
.	.	.	.	.	.	4g/	.
.	.	.	.	.	.	2.a/	.
.	.	.	.	4e\	.	.	.
.	.	.	.	4d\	.	4b-/	.
=90-	=90-	=90-	=90-	=90-	=90-	=90-	=90-
!	!	!	!	!	!	!LO:TX:b:t=Osanna da Capo.	!
!LO:TX:b:t=Oſanna ut Supra	!	!	!	!	!	!	!
00F]	.	00ryy	.	00c\	.	00a\	.
*	*	*	*	*	*	*custos:f	*
==	==	==	==	==	==	==	==
*-	*-	*-	*-	*-	*-	*-	*-
!!!system-decoration: [(g1)]
!!!RDF**kern: l = terminal long
!!!RDF**kern: > = above
!!!RDF**kern: < = below
!!!ENC: Filip Voros
!!!END: 2022-01-04
!!!EED: Jędrzej Mróz
!!!EEV: 2022-01-07
